!! 00026] TT[TB
!! Eigene Aufnahme, Guangzhou, 5.5.87
!!!OTL: Qing jiang he
!!!ARE: Asia, China,ÿHubei
!! Ethnic Group: Han
!! MM, S. 132 , Quelle S. Bandprotokoll)
!!!SCT: C0952
!!!YEM: Copyright 1995, estate of Helmut Schaffrath.
**kern
*ICvox
*Ivox
!! Mixed meters:  2/4; 3/4
*M3/4
*k[b-e-a-]
*E-:
{8cc
4cc
8b-
=1
8cc
4cc
8b-
=2
8cc
8ee-
16cc
16ee-
16cc
16b-
=3
2a-}
=4
{8a-
4a-
8b-
=5
8cc
4cc
8b-
=6
8g
8f
16g
16b-
16f
16e-
=7
2c}
=8
{8c
4c
8e-
=9
8f
4f
8e-
=10
8e-
8f
16g
16f
16g
16b-
=11
2cc}
=12
{8cc
4cc
16b-
16g
=13
8.f
16g
8f
8e-
=14
8f
8e-
8c
4cc
16b-
16cc
=15
*M2/4
8b-
8g
8f
8e-
=16
2c}
==
!!!AGN: Xiaodiao. Yumin shenghuo
!! Die Saengerin Lei Huilan ist Angehoerige der Zhuang Minderheit und
!!    studiert an der Guangzhouer Musikhochschule.
!!    Aufgenommen am 5.5.87
!!!AMT: irregular
!!!AIN: vox
!!!EED: Helmut Schaffrath
!!!EEV: 1.0
*-
